X:1
T:Let Him Come In
T:Let Him Come In
T:Dolphus D. Glover
T:M. W. O. Vance, 1913
T:Public Domain Courtesy of the Cyber Hymnal™
T:Public Domain Courtesy of the Cyber Hymnal™
C:Dolphus D. Glover
Z:Public Domain
Z:Courtesy of the Cyber Hymnal™
%%score ( 1 2 ) ( 3 4 )
L:1/8
Q:1/4=89
M:4/4
K:G
V:1 treble 
V:2 treble 
V:3 bass 
V:4 bass 
V:1
 [GB][GB][GB][Gd] [DG]2 [DG]2 | [EG][EG][EG][FA] [GB]4 | [Gd][Gd][Gd][GB] [FA]2 [FA]2 | %3
w: 1.~Work- ing for our Mas- ter|in this world be- low,|Striv- ing to be help- ful|
w: 2.~Work- ing for our Sav- ior|ev- ery day and hour,|Mak- ing known His good- ness,|
w: 3.~Work- ing for our Sav- ior|with a heart that’s strong,|Help- ing Him with good to|
 [GB][GB][G^c][Gc] [Fd]4 | [GB][GB][GB][Gd] [DG]2 [DG]2 | [EG][EG][EG][FA] [GB]3 [GB] | %6
w: ev- ery- where we go;|Ask- ing those who’re wea- ry|with their load of sin, To|
w: mer- cy, peace and power;|Show- ing those who wan- der|in the paths of sin, The|
w: o- ver- come the wrong;|Point- ing those in dark- ness|o’er and o’er a- gain, To|
 [Gc] [Gc]2 [Gd] [GB] [GB]2 [Gd] | [FA] [FA]2 [FB] [DG]4 ||"^Refrain" d4- [Gd][GB]GA | %9
w: heed Je- sus’ call- ing and|let Him come in.|Hear Him knock- ing now,|
w: good things He’s prom- ised if|they let Him in.||
w: Je- sus, who asks them to|let Him come in.||
 B4- [GB]2 z2 | B4- [GB][GB]cB | A4- [FA]2 z2 | d4- [Gd][GB]GA | B4- [GB]2 z [GB] | %14
w: * Let|* Him not de- part,|* O-|* pen wide the door,|* And ask|
w: |||||
w: |||||
 [Gc] [Gc]2 [Gd] [GB] [GB]2 [Gd] | [FA] [FA]2 [FB] [DG]4 |] %16
w: * Him to en- ter and|dwell in your hearts.|
w: ||
w: ||
V:2
 x8 | x8 | x8 | x8 | x8 | x8 | x8 | x8 || G G G G x4 | GGGG x4 | G G G G x4 | GGGG x4 | %12
 G G G G x4 | GGGG x4 | x8 | x8 |] %16
V:3
 [G,D][G,D][G,D][G,B,] [G,B,]2 [G,B,]2 | [E,B,][E,B,][D,B,][D,D] [G,D]4 | %2
w: ~ ~ ~ ~ ~ ~|~ ~ ~ ~ ~|
 [G,B,][G,B,][G,B,][G,D] [D,D]2 [D,D]2 | [G,D][G,D]A,A, [D,A,]4 | %4
w: ~ ~ ~ ~ ~ ~|~ ~ ~ ~ ~|
 [G,D][G,D][G,D][G,B,] [G,B,]2 [G,B,]2 | [E,B,][E,B,][E,B,][D,D] [G,D]3 [G,D] | %6
w: ~ ~ ~ ~ ~ ~|~ ~ ~ ~ ~ ~|
 [C,E] [C,E]2 [G,B,] [G,D] [G,D]2 [B,,D] | [D,C] [D,C]2 [D,D] [G,,B,]4 || %8
w: ~ ~ ~ ~ ~ ~|~ ~ ~ ~|
 [G,B,][G,B,][G,B,][G,B,] [G,B,][G,D] z2 | [G,D][G,D][G,D][G,D] [G,D]2 z2 | %10
w: Hear the Sav- ior knock- ing,|hear Him knock- ing now,|
 [D,E][D,E][D,E][D,E] [D,E] [D,E]2 z | [A,^C][A,C][A,C][A,C] [D,D]2 z2 | %12
w: Let Hm now grow wea- ry,|let Him not de- part;|
 [G,B,][G,B,][G,B,][G,B,] [G,B,][G,D] z2 | [G,D][G,D][G,D][G,D] [G,D]2 z [G,D] | %14
w: O- pen quick- ly, o- pen,|o- pen wide the door. *|
 [C,E] [C,E]2 [G,B,] [G,D] [G,D]2 [B,,D] | [D,C] [D,C]2 [D,D] [G,,B,]4 |] %16
w: ||
V:4
 x8 | x8 | x8 | x2 A,A, x4 | x8 | x8 | x8 | x8 || x8 | x8 | x8 | x8 | x8 | x8 | x8 | x8 |] %16

